!!!COM: Palestrina, Giovanni Perluigi da
!!!OPR: Missa Jam Christus astra ascenderat
!!!OMD: Sanctus
!!!OTL: First Section
**kern	**kern	**kern	**kern
*Ibass	*Itenor	*Icalto	*Icant
!Bassus	!Tenor	!Altus	!Cantus
*clefF4	*clefGv2	*clefG2	*clefG2
*k[b-]	*k[b-]	*k[b-]	*k[b-]
*G:dor	*G:dor	*G:dor	*G:dor
*M4/2	*M4/2	*M4/2	*M4/2
=1	=1	=1	=1
0r	1G	0r	1r
.	2B-	.	1g
.	2c	.	.
=2	=2	=2	=2
0r	2d	0r	1b-
.	2B-	.	.
.	1e-	.	1g
=3	=3	=3	=3
0r	2.d	2r	1f
.	.	2d	.
.	4c	.	.
.	4B-	2f	1b-
.	4A	.	.
.	2G	2g	.
=4	=4	=4	=4
1r	2F	2a	1cc
.	2A	2f	.
1G	4G	2.b-	1dd
.	4A	.	.
.	4B-	.	.
.	4c	8a	.
.	.	8g	.
=5	=5	=5	=5
1B-	4d	1f	2b-
.	4e	.	.
.	1f	.	1dd
1G	.	1g	.
.	2e	.	4cc
.	.	.	4b-
=6	=6	=6	=6
1F	2f	1c	4a
.	.	.	4g
.	1f	.	2a
1B-	.	1r	2d
.	2g	.	2dd
=7	=7	=7	=7
1c	2a	0r	2.cc
.	1g	.	.
.	.	.	4b-
[1d	.	.	[1a
.	4f	.	.
.	4e	.	.
=8	=8	=8	=8
1d]	2.f	1d	1a]
.	4e	.	.
1r	2d	2f	1dd
.	2G	2g	.
=9	=9	=9	=9
1D	1r	1a	1ff
2F	1d	2f	1dd
2G	.	[2b-	.
=10	=10	=10	=10
2A	1f	4b-]	2cc
.	.	4a	.
2F	.	1a	1ff
1B-	1d	.	.
.	.	2g	4ee
.	.	.	4dd
=11	=11	=11	=11
1A	1c	0a	2ff
.	.	.	2.ee
2.D	1f	.	.
.	.	.	4dd
.	.	.	[2dd
4F	.	.	.
=12	=12	=12	=12
1E	1g	2r	2dd]
.	.	1g	2cc#
1D	1a	.	2dd
.	.	2f	[2dd
=13	=13	=13	=13
0r	2g	2b-	2dd]
.	2e	1cc	2cc
.	[1d	.	2ff
.	.	2b-	[2gg
=14	=14	=14	=14
0r	1d]	2a	2gg]
.	.	2a	2ff
.	1r	4g	2ee
.	.	4a	.
.	.	4b-	2dd
.	.	4g	.
=15	=15	=15	=15
0r	1r	2a	2cc
.	.	1g	2b-
.	2r	.	[1a
.	[2d	2f	.
=16	=16	=16	=16
1.A	2d]	1e	1a]
.	2c	.	.
.	2f	2c	1r
2G	[2g	2d	.
=17	=17	=17	=17
2c	2g]	2e	0r
1d	2f	2f	.
.	2e	2g	.
2c	2e	[2a	.
=18	=18	=18	=18
2B-	2.d	2a]	2r
2B-	.	2g	1dd
.	4e	.	.
2.A	2f	1a	.
.	2e	.	2cc
4G	.	.	.
=19	=19	=19	=19
2F	2d	1r	2ff
2E	2c#	.	1gg
4D	1d	2r	.
4E	.	.	.
4F	.	[2a	2ff
4G	.	.	.
=20	=20	=20	=20
4A	0r	2a]	2ee
4B-	.	.	.
2c	.	2g	2ee
2G	.	2b-	2dd
2A	.	[2cc	2cc
=21	=21	=21	=21
1G	2r	2cc]	2dd
.	1d	2b-	2dd
1r	.	2.a	2ff
.	2c	.	2ee
.	.	4g	.
=22	=22	=22	=22
0r	2f	2a	1dd
.	1g	2b-	.
.	.	2g	2b-
.	2f	[2a	[2cc
=23	=23	=23	=23
0r	2e-	4a]	4cc]
.	.	4g	4b-
.	2e-	1g	2g
.	1d	.	1a
.	.	2f#	.
=24	=24	=24	=24
2r	4G	1g	1.b-
.	4A	.	.
1G	4B-	.	.
.	4c	.	.
.	4d	1r	.
.	4e	.	.
2F	2f	.	2a
=25	=25	=25	=25
2B-	2d	0r	2g
1c	1e-	.	2.a
.	.	.	4g
2B-	2d	.	[2g
=26	=26	=26	=26
2A	1c	1r	2g]
2A	.	.	2f
4G	1d	2r	2b-
4A	.	.	.
4B-	.	[2g	2b-
4c	.	.	.
=27	=27	=27	=27
1d	2r	2g]	1a
.	1d	2f	.
2r	.	2b-	1r
[2A	2c	[2cc	.
=28	=28	=28	=28
2A]	2f	2cc]	0r
2G	1g	2b-	.
2c	.	1a	.
[2d	2f	.	.
=29	=29	=29	=29
2d]	2d	2f	0r
2c	2.e	2.g	.
2B-	.	.	.
.	4d	4f	.
2B-	[2d	2d	.
=30	=30	=30	=30
1A	2d]	1e	1r
.	2c#	.	.
2B-	1d	2d	2r
2G	.	[2b-	[2g
=31	=31	=31	=31
2.d	2r	2b-]	2g]
.	1d	2a	2f
4c	.	.	.
2B-	.	2g	2b-
2A	2c	2f	[2cc
=32	=32	=32	=32
1.G	2e-	2.g	2cc]
.	2d	.	2b-
.	.	8f	.
.	.	8e-	.
.	2B-	4d	2g
.	.	4e	.
2F	[2c	2f	[2a
=33	=33	=33	=33
2C	4c]	2e-	4a]
.	4B-	.	4g
2E-	2G	2c	1g
1D	2A	1d	.
.	2A	.	2f#
=34	=34	=34	=34
0G	0G	0d	0g
*-	*-	*-	*-
!!!CDT: 1525/^1526/-1594/2/2
!!!OCY: Italia
!!!AGN: Mass (Paraphrase)
!!!AST: renaissance, vocal
!!!ASW: Hymn
!!!PWK: Masses, Book 5
!!!RNB: Cadence finals: D
!!!YOR: Le Opere Complete, v. 15, p. 20
!!!YOO: Rome, Italy: Fratelli Scalera
!!!END: 1992//
!!!EED: John Miller
!!!YEC: Copyright 2000, John Miller
!!!YEN: United States of America
!!!YEM: Rights to all derivative electronic formats reserved.
!!!YEM: Refer to licensing agreement for further details.
!!!YEM: This file must be accompanied by the licensing agreement.
!!!YEM: A copy of the licensing agreement may be found at http://www.music-cog.ohio-state.edu/HumdrumDatabases/Palestrina/license.txt
!!!EMD: converted to Humdrum by Bret Aarden
